16x16/apps/blobwars.svg

<svg height="16" width="16" xmlns="http://www.w3.org/2000/svg"><circle cx="8" cy="8" fill="#ffc129" r="8"/><path d="m1 5v9h1v-11z" fill="#f13c3c"/><path d="m4 6v1l3 1v-1zm8 0-3 1v1l3-1zm-6.5 2a1.5 1.5 0 0 0 -1.5 1.5 1.5 1.5 0 0 0 1.5 1.5 1.5 1.5 0 0 0 1.5-1.5 1.5 1.5 0 0 0 -1.5-1.5zm5 0a1.5 1.5 0 0 0 -1.5 1.5 1.5 1.5 0 0 0 1.5 1.5 1.5 1.5 0 0 0 1.5-1.5 1.5 1.5 0 0 0 -1.5-1.5z" fill="#17191e"/><path d="m2.723 2a8 8 0 0 0 -2.133 3h14.822a8 8 0 0 0 -2.13-3h-10.561z" fill="#f13c3c"/></svg>

<svg xmlns="http://www.w3.org/2000/svg" height="16" width="16"><circle cx="8" cy="8" r="8" style="fill:#ffc129"/><path style="fill:#f13c3c" d="M1 5v9h1V3z"/><path style="fill:#17191e" d="M4 6v1l3 1V7L4 6zm8 0L9 7v1l3-1V6zM5.5 8A1.5 1.5 0 0 0 4 9.5 1.5 1.5 0 0 0 5.5 11 1.5 1.5 0 0 0 7 9.5 1.5 1.5 0 0 0 5.5 8zm5 0A1.5 1.5 0 0 0 9 9.5a1.5 1.5 0 0 0 1.5 1.5A1.5 1.5 0 0 0 12 9.5 1.5 1.5 0 0 0 10.5 8z"/><path style="fill:#f13c3c" d="M2.723 2A8 8 0 0 0 .59 5h14.822a8 8 0 0 0-2.13-3H2.721z"/></svg>
